X:517
T:Fair Wind, A
T:Fair Wind, The
R:reel
H:Also played in A, #535
Z:id:hn-reel-517
M:C|
K:G
DGGF ~G3A | BAGA BA~A2 | DGGF ~G3A |1 BAGE EDDE :|2 BAGE EDDA ||
|: BddB ~G3A | BddB cAAc | BddB ~G3A |1 BAGE EDDA :|2 BAGE EDDE ||
|: GE~E2 c3A | B2dB AcBA | GE~E2 c3A |1 BAGE EDDE :|2 BAGE EDDE ||
P:variations
|: ~G3F ~G3A | BAGA BAAB | ~G3D ~G3A |1 BAGE EDDE :|2 BAGE EDDA ||
|: BddB ~G3A | BcdB cA~A2 | BddB ~G3A |1 BAGE EDDA :|2 BAGE EDDE ||
|: GE~E2 c3A | BAAG AcBA | GE~E2 c3A |1 BAGE EDDE :|2 BAGE EDDE ||

